X: 30004
T: Off In The Morning
R: reel
M: 4/4
K: Gmajor
|:G3B dB~B2|gB~B2 dBGB|cedc BAGB|Adde dcBA|
G3B dB~B2|gB~B2 dBGB|cedc BAGB|AGFA G4:|
|:G2gG fGeG|(3ded (3Bcd gdBG|(3FED AD BDAD|FDFA cAFA|
G2gG fGeG|(3ded (3Bcd gdBd|cedc BAGB|ADFA G4:|

